X:410
T: Sweeny's
M: 2/4
L: 1/8
Q: 325
R: Polka
K: A
ef/e/ ce|Ae ce|f/g/a/f/ ec|BA F2|
ef/e/ ce|Ae ce|f/g/a/f/ ec|BA A2 :|
ce a>f|ec BA|ce a>f|ec B2|
ce f/g/a/f/|ec BA|ef/e/ cB|BA A2 :|
